X: 877
T: Sault's own hornpipe
C: anon.
O: Ireland
B: Francis O'Neill: "The Dance Music of Ireland" (1907) no. 877
R: Hornpipe
Z: Transcribed by Frank Nordberg - http://www.musicaviva.com
F: http://www.musicaviva.com/abc/tunes/ireland/oneill-1001/oneill-1001-087
7.abc
M: C|
L: 1/8
K: G
d>c|B>GB>d g>b (3agf|g z G z D z G, z|c>Bc>d e>fg>f|e>dc>B A2d>c|
B>GB>d g>b (3agf|g>b (3agf g2d>c|B>dg>d e>cA>F|G2B2G2::B>c|d>gg>a d2f>g|d
>g (3gag d>g (3gag|
d>gb>g a2g>a|e>a (3aba e>a (3aba|d>gg>a g2f>g|eggg dgga|b>ga>f g>de>c|B>G
A>F G2:|
W:
W:
W: From Musica Viva - http://www.musicaviva.com
W: the Internet center for free sheet music downloads.


